svgs/waifupx.svg

<svg xmlns="http://www.w3.org/2000/svg" x="0%" y="0%" viewBox="0 0 192 192" xml:space="preserve"><path fill="none" stroke="#FFF" stroke-width="12" stroke-linecap="square" d="M92.9 130.58c8.56 14.39-11.34 25.81-18.51 9.5l-39.36-79c-8.56-14.39 11.34-25.8 18.51-9.5l39.36 79zM120.65 140.43 80.93 61.08c-8.56-14.39 11.34-25.81 18.51-9.51l39.72 79.35c8.56 14.39-11.34 25.81-18.51 9.51z"/><path fill="none" stroke="#FBFBFB" stroke-width="12" stroke-linecap="square" d="M156.97 73.3c8.56 14.39-11.34 25.81-18.51 9.51l-10.98-21.2c-8.56-14.39 11.34-25.81 18.51-9.5l10.98 21.19z"/></svg>

<?xml version="1.0" encoding="utf-8"?>
<svg version="1.1" xmlns="http://www.w3.org/2000/svg" x="0%" y="0%" width="100%" height="100%"
    viewBox="0 0 192.0 192.0" enable-background="new 0 0 192.0 192.0" xml:space="preserve">
	<path
		fill="#FFFFFF"
		stroke="#FFFFFF"
		fill-opacity="0.000"
		stroke-opacity="1.000" stroke-width="12" stroke-linecap="square"
		d="M92.90,130.58C101.46,144.97,81.56,156.39,74.39,140.08L35.03,61.08C26.47,46.69,46.37,35.28,53.54,51.58L92.90,130.58z"/>
	<path
		fill="#FFFFFF"
		stroke="#FFFFFF"
		fill-opacity="0.000"
		stroke-opacity="1.000" stroke-width="12" stroke-linecap="square"
		d="M120.65,140.43L80.93,61.08C72.37,46.69,92.27,35.27,99.44,51.57L139.16,130.92C147.72,145.31,127.82,156.73,120.65,140.43z"/>
	<path
		fill="#FFFFFF"
		stroke="#FBFBFB"
		fill-opacity="0.000"
		stroke-opacity="1.000" stroke-width="12" stroke-linecap="square"
		d="M156.97,73.30C165.53,87.69,145.63,99.11,138.46,82.81L127.48,61.61C118.92,47.22,138.82,35.80,145.99,52.11L156.97,73.30z"/>
</svg>
